X: 23110
T: Laurel Tree, The
R: reel
M: 4/4
K: Adorian
eA A/A/A e2 dc|BAGA Bcdg|eA A/A/A (3ege dc|BAGB ABcd|
eA A/A/A e2 dc|BAGA Bcdg|edef gbaf gedB ABcd:|
eaag egdc|BAGA Bcdg|eaab (3aba ga|bagb abag|
eaag egdc|BAGA Bcdg|edef gbaf|gedB ABcd:|

